src/images/icon/icon_state_choice.svg

<svg height="20" viewBox="0 0 20 20" width="20" xmlns="http://www.w3.org/2000/svg"><path d="m6.09107077 9.49326422 2.57247587 2.27139658 6.40406496-6.53932425s.4300585-.43527736.8049925-.09589359c.1119989.10296408.2406227.39197058-.0498746.84536608l-6.68668728 8.68212616s-.51318269.7777545-1.12217697-.0088381l-2.88397297-4.3187468s-.3429968-.5841997.08574919-.93507301c.14437366-.11754699.47249558-.30049604.8754293.09898693h.0004375z" fill="#0080ff"/></svg>

<?xml version="1.0" encoding="UTF-8"?>
<svg width="20px" height="20px" viewBox="0 0 20 20" version="1.1" xmlns="http://www.w3.org/2000/svg" xmlns:xlink="http://www.w3.org/1999/xlink">
    
    <g id="Dashboard" stroke="none" stroke-width="1" fill="none" fill-rule="evenodd">
        <g id="00-Menu-交互备份" transform="translate(-739.000000, -299.000000)" fill="#0080FF" fill-rule="nonzero">
            <g id="icon_close" transform="translate(739.000000, 299.000000)">
                <path d="M6.09107077,9.49326422 L8.66354664,11.7646608 L15.0676116,5.22533655 C15.0676116,5.22533655 15.4976701,4.79005919 15.8726041,5.12944296 C15.984603,5.23240704 16.1132268,5.52141354 15.8227295,5.97480904 L9.13604222,14.6569352 C9.13604222,14.6569352 8.62285953,15.4346897 8.01386525,14.6480971 L5.12989228,10.3293503 C5.12989228,10.3293503 4.78689548,9.7451506 5.21564147,9.39427729 C5.36001513,9.2767303 5.68813705,9.09378125 6.09107077,9.49326422 L6.09150827,9.49326422 L6.09107077,9.49326422 Z" id="路径"></path>
            </g>
        </g>
    </g>
</svg>
